img/icn_attach.svg

<svg width="19" height="21" viewBox="0 0 19 21" fill="none" xmlns="http://www.w3.org/2000/svg">
<path d="M6.69678 15.6406L13.1893 9.14811C13.5644 8.77303 13.7751 8.26433 13.7751 7.73389V7.27543C13.7751 6.17086 12.8796 5.27543 11.7751 5.27543H11.4412C10.9108 5.27543 10.4021 5.48614 10.027 5.86121L3.0498 12.8384C2.81244 13.0758 2.638 13.3673 2.56163 13.6942C2.29116 14.852 1.77636 17.7224 3.01416 18.7807C4.58057 20.1201 6.54932 20.0864 7.68311 19.4336C8.64899 18.8774 15.4442 11.7938 17.4357 9.70795C17.7898 9.33709 17.9829 8.84788 17.9829 8.33514V5.08953C17.9829 4.55909 17.7722 4.05039 17.3971 3.67531L15.2554 1.53357C14.8803 1.1585 14.3716 0.947784 13.8412 0.947784H11.4192C10.8888 0.947784 10.3801 1.1585 10.005 1.53357L0.844223 10.6943" stroke="#A0A0A0" stroke-width="1.5"/>
</svg>

<svg width="19" height="21" fill="none" xmlns="http://www.w3.org/2000/svg"><path d="m6.697 15.64 6.492-6.492a2 2 0 0 0 .586-1.414v-.459a2 2 0 0 0-2-2h-.334a2 2 0 0 0-1.414.586L3.05 12.838a1.791 1.791 0 0 0-.488.856c-.27 1.158-.786 4.028.452 5.087 1.567 1.34 3.535 1.305 4.67.653.965-.557 7.76-7.64 9.752-9.726.354-.37.547-.86.547-1.373V5.09a2 2 0 0 0-.586-1.415l-2.142-2.141a2 2 0 0 0-1.414-.586H11.42a2 2 0 0 0-1.414.586l-9.16 9.16" stroke="#A0A0A0" stroke-width="1.5"/></svg>
